X:22
T:Donnybrook Fair
M:6/8
L:1/8
K:G Major
D|GFG AGA|Bee dBA|BAB GAB|AGE E2D|!
GFG AGA|Bee dBA|BAB GAB|AGF G2:|!
f|gfe fed|ege dBA|Bee eBA|Bee e2f|!
[1 gfe fed|ege dBA|BAB GAB AGF G2:|!
[2 gfg aga|bge dBA|BAB GAB|AGF G2|]!
